X:340
T:B340-  O Man in Desperation
S:Cf. Mall Simms and In the Wanton Season, B544, 545
Q:1/4=120
L:1/2
M:4/2
K:Am
A|ceEE|BdDD|AcGA|E2zB|\
cAdB|e3/2e/EE|DDEE|A2z2|]

